icons/litmus-light.svg

<svg width="256" height="256" viewBox="0 0 256 256" fill="none" xmlns="http://www.w3.org/2000/svg">
<g clip-path="url(#clip0_164_576)">
<path d="M196 0H60C26.8629 0 0 26.8629 0 60V196C0 229.137 26.8629 256 60 256H196C229.137 256 256 229.137 256 196V60C256 26.8629 229.137 0 196 0Z" fill="#F4F2ED"/>
<g clip-path="url(#clip1_164_576)">
<path d="M40 128.459C40 136.995 41.2298 145.243 43.5089 153.042L91.7843 137.229C91.1745 134.596 90.8498 131.854 90.8498 129.035C90.8498 125.772 91.2935 122.615 92.1021 119.608L43.4829 103.965C41.2195 111.738 40 119.955 40 128.459Z" fill="#6A7A55"/>
<path d="M103.982 101.121L73.459 59.6464C60.6389 69.7273 50.7076 83.3131 45.1035 98.9585L93.8362 114.638C96.1235 109.366 99.6174 104.74 103.982 101.121Z" fill="#A09440"/>
<path d="M124.91 92.841V41C107.391 41.5093 91.1654 47.1708 77.6904 56.5176L108.264 98.0609C113.169 95.0702 118.836 93.2061 124.91 92.841Z" fill="#AFA148"/>
<path d="M93.3505 142.254L45.1353 158.046C50.82 173.868 60.929 187.58 73.9768 197.682L103.734 156.74C99.1651 152.882 95.5715 147.913 93.3505 142.254Z" fill="#4C5C59"/>
<path d="M78.2363 200.773C91.6033 209.896 107.626 215.415 124.91 215.918V165.228C118.722 164.856 112.957 162.926 107.99 159.836L78.2363 200.773Z" fill="#48555D"/>
<path d="M176.82 56.184C163.463 47.0525 147.449 41.5216 130.172 41.0034V92.906C136.042 93.3961 141.513 95.2862 146.255 98.2366L176.82 56.184Z" fill="#E3B23B"/>
<path d="M130.172 165.163V215.915C147.584 215.392 163.715 209.779 177.135 200.519L146.889 159.422C142.003 162.605 136.307 164.651 130.172 165.163Z" fill="#903024"/>
<path d="M151.081 156.238L181.375 197.402C194.386 187.222 204.436 173.437 210.037 157.553L161.058 141.795C158.946 147.4 155.495 152.349 151.081 156.238Z" fill="#D65841"/>
<path d="M215 128.459C215 119.817 213.742 111.47 211.409 103.586L162.16 119.716C162.95 122.691 163.383 125.811 163.383 129.035C163.383 131.682 163.094 134.262 162.555 136.748L211.635 152.539C213.821 144.888 215 136.812 215 128.459Z" fill="#E6703E"/>
<path d="M160.441 114.742L209.765 98.5859C204.069 82.9063 194.021 69.3158 181.077 59.2786L150.508 101.337C154.782 104.947 158.2 109.532 160.441 114.742Z" fill="#F4A83A"/>
</g>
</g>
<defs>
<clipPath id="clip0_164_576">
<rect width="256" height="256" fill="white"/>
</clipPath>
<clipPath id="clip1_164_576">
<rect width="175" height="175" fill="white" transform="translate(40 41)"/>
</clipPath>
</defs>
</svg>

<svg xmlns="http://www.w3.org/2000/svg" width="256" height="256" fill="none"><g clip-path="url(#clip0_164_576)"><path fill="#F4F2ED" d="M196 0H60C26.863 0 0 26.863 0 60v136c0 33.137 26.863 60 60 60h136c33.137 0 60-26.863 60-60V60c0-33.137-26.863-60-60-60"/><g clip-path="url(#clip1_164_576)"><path fill="#6A7A55" d="M40 128.459c0 8.536 1.23 16.784 3.509 24.583l48.275-15.813a36.3 36.3 0 0 1 .318-17.621l-48.62-15.643A87.5 87.5 0 0 0 40 128.459"/><path fill="#A09440" d="M103.982 101.121 73.459 59.646C60.639 69.727 50.708 83.313 45.103 98.96l48.733 15.679a36.4 36.4 0 0 1 10.146-13.517"/><path fill="#AFA148" d="M124.91 92.841V41a87.05 87.05 0 0 0-47.22 15.518l30.574 41.543a36.06 36.06 0 0 1 16.646-5.22"/><path fill="#4C5C59" d="m93.35 142.254-48.215 15.792c5.685 15.822 15.794 29.534 28.842 39.636l29.757-40.942a36.36 36.36 0 0 1-10.383-14.486"/><path fill="#48555D" d="M78.236 200.773a87.05 87.05 0 0 0 46.674 15.145v-50.69a36.06 36.06 0 0 1-16.92-5.392z"/><path fill="#E3B23B" d="M176.82 56.184a87.05 87.05 0 0 0-46.648-15.18v51.902c5.87.49 11.341 2.38 16.083 5.33z"/><path fill="#903024" d="M130.172 165.163v50.752a87.06 87.06 0 0 0 46.963-15.396l-30.246-41.097a36.06 36.06 0 0 1-16.717 5.741"/><path fill="#D65841" d="m151.081 156.238 30.294 41.164c13.011-10.18 23.061-23.965 28.662-39.849l-48.979-15.758a36.3 36.3 0 0 1-9.977 14.443"/><path fill="#E6703E" d="M215 128.459a87.5 87.5 0 0 0-3.591-24.873l-49.249 16.13a36.25 36.25 0 0 1 .395 17.032l49.08 15.791a87.5 87.5 0 0 0 3.365-24.08"/><path fill="#F4A83A" d="m160.441 114.742 49.324-16.156c-5.696-15.68-15.744-29.27-28.688-39.307l-30.569 42.058a36.4 36.4 0 0 1 9.933 13.405"/></g></g><defs><clipPath id="clip0_164_576"><path fill="#fff" d="M0 0h256v256H0z"/></clipPath><clipPath id="clip1_164_576"><path fill="#fff" d="M40 41h175v175H40z"/></clipPath></defs></svg>
